X:813
T:Irene Meldrum's Welcome To Bon Accord 
C:Joe Buchanan's Scottish Tome - Page 335.0
I:335 0
R:Strathspey
Z:Carl Allison
C:J. S. Skinner
L:1/16
M:2/4
K:D
(a>g) | "D" f>ed>f A>AA>d | "G" (B>A)(d>A) B2A>B | "D" d2(f>d) a>fe>d | "E7" f2e2 "A" e2(a>g) |
"D" f>ed>f A>AA>d | "G" (B>A)(d>A) B2A>A | "D" d2(c>d) "A7" e>fa>e | "D" f2"G"d2 "D" d2 :|
(f>g) | "D" a>gf<a f>ed<e | "D" (f<a)(d>A) B2A>A | "D" d2(f>d) a>fe>d | "E7" f2e2 "A" e2(f>g) |
"D" a>gf<a f>ed<e | "D" (f<a)(d>A) B2A>A | "D" d2(c>d) "A7" e>fa>e | "D" f2"G"d2 "D" d2(f>g) |
"D" a>gf<a f>ed<e | "D" (f<a)(d>A) B2A>A | "D" d2(f>d) a>fe>d | "E7" f2e2 "A" e2(a>g) |
"D" (f<a)(d>f) "A" (e>d)(e<f) | "D" (a<e)(f>d) B2A>A | "D" d2(c>d) "A7" e>fa>e | "D" f2"G"d2 "D" d2 |]
f2 | "D" A>AA>B (A>B)(d>A) | "G" (B<e)(d>A) B2A>A | "D" d2(f>d) a>fe>d | "E7" f2e2 "A" e2f2 |
"D" A>AA>B (A>B)(d>A) | "G" (B<e)(d>A) B2A>A | "D" d2(c>d) "A7" e>fa>e | "D" f2"G"d2 "D" d2 :|
(f>g) | "D" a>gf>a g>fe<g | "D" (f>e)(d<f) e>Ac<e | "D" d2(f>d) a>fe>d | "E7" f2e2 "A" e2(f>g) |
"D" a>gf<a g>fe<g | "D" (f>e)(d<f) e>Ac<e | "D" d2(c>d) "A7" (e>f)(a>e) | "D" f2"G"d2 d(f>g) |
"D" a>gf<a g>fe<g | "D" f>ed<f e>Ac<e | "D" d2(f>d) a>fe>d | "E7" f2e2 "A" e2(a>g) |
"D" f<ae>f e>de<f | "A7" (a>e)(f>d) B2A>B | "D" d2(c>d) "A7" e>fa>e | "D" f2"G"d2 "D" d2 |]

